X:5008
T:Paro lou loup
O:england
M:3/8
L:1/8
K:C
de>f|g/f/e/d/c|dg>f|g3:|\
|:dgf|def|d/e/cd|BG2|dgf|def|d/e/cB|c3:|


